svg/u1f1fc.svg

<svg viewBox="0 0 128 128" xmlns="http://www.w3.org/2000/svg">
  <path d="m127.29 16.43c-0.46-0.57-1.15-0.91-1.87-0.91h-24.79c-1.14 0-2.12 0.8-2.33 1.92l-9.58 48.68-13.47-48.86c-0.08-0.29-0.22-0.54-0.39-0.77-0.01-0.01-0.01-0.04-0.03-0.05-0.03-0.04-0.08-0.05-0.11-0.09-0.17-0.2-0.37-0.36-0.6-0.49-0.08-0.04-0.15-0.09-0.23-0.12-0.29-0.13-0.6-0.22-0.94-0.22h-17.91c-0.33 0-0.65 0.09-0.94 0.22-0.08 0.04-0.15 0.08-0.23 0.12-0.23 0.13-0.43 0.29-0.6 0.49-0.04 0.04-0.08 0.05-0.11 0.09-0.01 0.02-0.01 0.04-0.03 0.05-0.17 0.23-0.31 0.49-0.39 0.77l-13.45 48.86-9.59-48.68c-0.22-1.11-1.2-1.92-2.33-1.92h-24.78c-0.73 0-1.43 0.34-1.87 0.91-0.46 0.57-0.62 1.33-0.45 2.03l24.79 100.45c0.01 0.03 0.04 0.06 0.04 0.1 0.06 0.19 0.13 0.36 0.23 0.53 0.03 0.05 0.05 0.1 0.09 0.15 0.02 0.03 0.03 0.06 0.06 0.09 0.12 0.16 0.25 0.29 0.41 0.42 0.02 0.02 0.05 0.03 0.08 0.05 0.16 0.12 0.34 0.22 0.53 0.29 0.05 0.02 0.11 0.04 0.17 0.06 0.22 0.07 0.46 0.12 0.7 0.12h19.78c0.33 0 0.63-0.08 0.92-0.21 0.08-0.04 0.15-0.08 0.23-0.12 0.2-0.12 0.39-0.26 0.55-0.44 0.04-0.04 0.1-0.06 0.14-0.1 0.02-0.03 0.02-0.06 0.04-0.09 0.19-0.25 0.34-0.52 0.42-0.83l14.55-56.6 14.55 56.61c0.08 0.31 0.23 0.58 0.42 0.83 0.02 0.03 0.02 0.06 0.05 0.09 0.03 0.04 0.09 0.06 0.13 0.1 0.16 0.18 0.34 0.32 0.55 0.44 0.08 0.04 0.15 0.09 0.23 0.12 0.29 0.12 0.59 0.21 0.92 0.21h19.78c0.24 0 0.47-0.05 0.7-0.12 0.06-0.02 0.11-0.04 0.18-0.06 0.18-0.07 0.36-0.17 0.53-0.29 0.03-0.02 0.05-0.03 0.08-0.05 0.15-0.12 0.29-0.26 0.41-0.42 0.02-0.03 0.03-0.06 0.06-0.09 0.03-0.05 0.05-0.1 0.09-0.15 0.09-0.17 0.17-0.34 0.23-0.53 0.01-0.03 0.04-0.06 0.04-0.1l24.79-100.45c0.16-0.71 0-1.47-0.45-2.04z" fill="#40C0E7"/>
</svg>

<svg viewBox="0 0 128 128" xmlns="http://www.w3.org/2000/svg">
  <defs/>
  <path d="M127.29,16.43 C126.83,15.86 126.14,15.52 125.42,15.52 L100.63,15.52 C99.49,15.52 98.51,16.32 98.3,17.44 L88.72,66.12 L75.25,17.26 C75.17,16.97 75.03,16.72 74.86,16.49 C74.85,16.48 74.85,16.45 74.83,16.44 C74.8,16.4 74.75,16.39 74.72,16.35 C74.55,16.15 74.35,15.99 74.12,15.86 C74.04,15.82 73.97,15.77 73.89,15.74 C73.6,15.61 73.29,15.52 72.95,15.52 L55.04,15.52 C54.71,15.52 54.39,15.61 54.1,15.74 C54.02,15.78 53.95,15.82 53.87,15.86 C53.64,15.99 53.44,16.15 53.27,16.35 C53.23,16.39 53.19,16.4 53.16,16.44 C53.15,16.46 53.15,16.48 53.13,16.49 C52.96,16.72 52.82,16.98 52.74,17.26 L39.29,66.12 L29.7,17.44 C29.48,16.33 28.5,15.52 27.37,15.52 L2.59,15.52 C1.86,15.52 1.16,15.86 0.72,16.43 C0.26,17 0.1,17.76 0.27,18.46 L25.06,118.91 C25.07,118.94 25.1,118.97 25.1,119.01 C25.16,119.2 25.23,119.37 25.33,119.54 C25.36,119.59 25.38,119.64 25.42,119.69 C25.44,119.72 25.45,119.75 25.48,119.78 C25.6,119.94 25.73,120.07 25.89,120.2 C25.91,120.22 25.94,120.23 25.97,120.25 C26.13,120.37 26.31,120.47 26.5,120.54 C26.55,120.56 26.61,120.58 26.67,120.6 C26.89,120.67 27.13,120.72 27.37,120.72 L47.15,120.72 C47.48,120.72 47.78,120.64 48.07,120.51 C48.15,120.47 48.22,120.43 48.3,120.39 C48.5,120.27 48.69,120.13 48.85,119.95 C48.89,119.91 48.95,119.89 48.99,119.85 C49.01,119.82 49.01,119.79 49.03,119.76 C49.22,119.51 49.37,119.24 49.45,118.93 L64,62.33 L78.55,118.94 C78.63,119.25 78.78,119.52 78.97,119.77 C78.99,119.8 78.99,119.83 79.02,119.86 C79.05,119.9 79.11,119.92 79.15,119.96 C79.31,120.14 79.49,120.28 79.7,120.4 C79.78,120.44 79.85,120.49 79.93,120.52 C80.22,120.64 80.52,120.73 80.85,120.73 L100.63,120.73 C100.87,120.73 101.1,120.68 101.33,120.61 C101.39,120.59 101.44,120.57 101.51,120.55 C101.69,120.48 101.87,120.38 102.04,120.26 C102.07,120.24 102.09,120.23 102.12,120.21 C102.27,120.09 102.41,119.95 102.53,119.79 C102.55,119.76 102.56,119.73 102.59,119.7 C102.62,119.65 102.64,119.6 102.68,119.55 C102.77,119.38 102.85,119.21 102.91,119.02 C102.92,118.99 102.95,118.96 102.95,118.92 L127.74,18.47 C127.9,17.76 127.74,17 127.29,16.43 Z" fill="#40C0E7"/>
</svg>
